X: 35925
T: Sandymount, The
R: reel
M: 4/4
K: Adorian
EAAG A2 (3^cBA|GEDG EGDG|EAAG A2 (3B^cd|egfa gedg|
eAAG A2 (3^cBA|GE~E2 GEDG|EAAG A2 (3B^cd|egfa gedg||
ea~a2 a2ba|ge~e2 gedg|eaag ~a2ga|bg~g2 baag|
eaag a2 ba|gedB dega|(3bag af g2fg|e2ed (3efg ag||

